svg/set/.alt/2ED-1/R.svg

<?xml version="1.0" encoding="UTF-8" standalone="no"?>
<svg
   width="143pt"
   height="200pt"
   viewBox="0 0 143 200"
   version="1.1"
   id="svg4"
   xmlns="http://www.w3.org/2000/svg"
   xmlns:svg="http://www.w3.org/2000/svg">
  <defs
     id="defs4" />
  <g
     id="g4">
    <polygon
       fill="url(#radialGradient856)"
       points="134,190 10,190 10,9 134,9 "
       id="polygon1"
       style="fill:url(#radialGradient856)" />
    <radialGradient
       cx="0"
       cy="0"
       r="1"
       fx="0"
       fy="0"
       id="radialGradient856"
       gradientUnits="userSpaceOnUse"
       gradientTransform="matrix(71.5,0,0,-71.5,71.5,100)"
       spreadMethod="pad">
      <stop
         style="stop-color:#ebd491"
         offset="0"
         id="stop1" />
      <stop
         style="stop-color:#d2bb7b"
         offset="0.7"
         id="stop2" />
      <stop
         style="stop-color:#8b723c"
         offset="1"
         id="stop3" />
    </radialGradient>
    <path
       d="M 0,0 H 143 V 200 H 0 V 0 m 10,9 c 0,60.33 0,120.67 0,181 41.33,0 82.67,0 124,0 0,-60.33 0,-120.67 0,-181 C 92.67,9 51.33,9 10,9 Z"
       id="path3" />
    <path
       d="m 94.1,43.09 c 6.29,-1.03 12.63,-2.07 19.02,-2.11 2.11,-0.14 3.31,2.09 3.12,3.98 0.03,24.35 -0.02,48.71 0.03,73.06 0.45,8.14 0.38,17.18 5.81,23.85 2.59,3.45 6.59,5.25 10.49,6.81 -1.56,4.23 -6.36,6 -10.51,6.33 -6.98,-0.04 -12.81,-5.39 -15.64,-11.43 -1.08,-1.84 -1.81,-4.96 -4.56,-4.62 -8.12,6.61 -16,15.24 -27.01,16.38 -8.34,1.08 -16.96,3.67 -25.29,1.25 -6.35,-1.99 -11.98,-5.98 -16.32,-10.97 -4.6,-6.23 -6.13,-14.06 -7.09,-21.58 C 24.09,104.76 25.63,85.33 24.55,66 24.35,61.45 24.14,55.86 19.88,53.1 c -2.77,-2.42 -7.63,-3.32 -7.9,-7.67 7.24,-0.42 14.5,-0.83 21.54,-2.73 2.39,-0.32 6.27,-1.31 7.52,1.38 0.69,6.95 -0.24,13.94 -0.04,20.91 0.28,18.33 -1.51,36.85 1.96,54.99 1.48,8.07 5.46,16.14 12.53,20.69 8.73,5.2 19.72,4.99 29.1,1.7 5.96,-1.86 11.35,-5.91 14.13,-11.59 3.05,-7.23 3.26,-15.22 3.61,-22.95 0.51,-11.4 -1.7,-22.68 -1.96,-34.06 -0.41,-5.91 0.45,-11.92 -1.07,-17.72 -0.79,-4.4 -5.16,-6.61 -7.42,-10.11 -0.64,-1.46 0.92,-2.68 2.22,-2.85 z"
       id="path4" />
  </g>
</svg>

<?xml version="1.0" encoding="UTF-8"?>
<svg xmlns="http://www.w3.org/2000/svg" xmlns:xlink="http://www.w3.org/1999/xlink" width="143pt" height="200pt" viewBox="0 0 143 200" version="1.1">
  <g>
    <polygon fill="url(#radialGradient856)" points="10,9 134,9 134,190 10,190"/>
    <radialGradient cx="0" cy="0" r="1" fx="0" fy="0" id="radialGradient856" gradientUnits="userSpaceOnUse" gradientTransform="matrix(71.5,0,0,-71.5,71.5,100)" spreadMethod="pad">
      <stop style="stop-color:#ebd491" offset="0"/>
      <stop style="stop-color:#d2bb7b" offset="0.7"/>
      <stop style="stop-color:#8b723c" offset="1"/>
    </radialGradient>
    <path d=" M 0.00 0.00 L 143.00 0.00 L 143.00 200.00 L 0.00 200.00 L 0.00 0.00 M 10.00 9.00 C 10.00 69.33 10.00 129.67 10.00 190.00 C 51.33 190.00 92.67 190.00 134.00 190.00 C 134.00 129.67 134.00 69.33 134.00 9.00 C 92.67 9.00 51.33 9.00 10.00 9.00 Z"/>
    <path d=" M 94.10 43.09 C 100.39 42.06 106.73 41.02 113.12 40.98 C 115.23 40.84 116.43 43.07 116.24 44.96 C 116.27 69.31 116.22 93.67 116.27 118.02 C 116.72 126.16 116.65 135.20 122.08 141.87 C 124.67 145.32 128.67 147.12 132.57 148.68 C 131.01 152.91 126.21 154.68 122.06 155.01 C 115.08 154.97 109.25 149.62 106.42 143.58 C 105.34 141.74 104.61 138.62 101.86 138.96 C 93.74 145.57 85.86 154.20 74.85 155.34 C 66.51 156.42 57.89 159.01 49.56 156.59 C 43.21 154.60 37.58 150.61 33.24 145.62 C 28.64 139.39 27.11 131.56 26.15 124.04 C 24.09 104.76 25.63 85.33 24.55 66.00 C 24.35 61.45 24.14 55.86 19.88 53.10 C 17.11 50.68 12.25 49.78 11.98 45.43 C 19.22 45.01 26.48 44.60 33.52 42.70 C 35.91 42.38 39.79 41.39 41.04 44.08 C 41.73 51.03 40.80 58.02 41.00 64.99 C 41.28 83.32 39.49 101.84 42.96 119.98 C 44.44 128.05 48.42 136.12 55.49 140.67 C 64.22 145.87 75.21 145.66 84.59 142.37 C 90.55 140.51 95.94 136.46 98.72 130.78 C 101.77 123.55 101.98 115.56 102.33 107.83 C 102.84 96.43 100.63 85.15 100.37 73.77 C 99.96 67.86 100.82 61.85 99.30 56.05 C 98.51 51.65 94.14 49.44 91.88 45.94 C 91.24 44.48 92.80 43.26 94.10 43.09 Z"/>
  </g>
</svg>
